X: 1
T: da Foula Reel
T: da Fields o'Foula
O: trad Shetland
R: jig
Z: 2014 John Chambers <jc:trillian.mit.edu>
S: handwritten page VI-3 from the Boston Scottish Fiddle Club collection
M: 6/8
L: 1/8
K: Em
D |:\
"Em"E2G G2e | edB BAG | "Em"G2B "D"A2B | "Em"G2A "Bm"GED ||\
"Em"E2G G2e | edB BAG | "G"G2B "Am"A2B | "Bm"d3 "D"D3 :|
|:\
"Em"edB ABd | edB BAG | "Em"{e}g2B "D"A2B | "Em"G2A "Bm"GED ||\
"Em"edB ABd | edB BAG | "C"{e}g2B "Am"A2B | "Bm"d3 "D"D3 :|
